X:12
T:Je vous salue Marie - V15
M:2/4
L:1/8
K:Cm
C|GA GF|G2G2|zE FG|E2 D2|C2z2|CD EF|[M:3/4]G3G FA|
[M:2/4]G2-HG G|[M:6/8]cBc AGF|EFA GED|[M:3/4]C2 G2 c2|[M:2/4]G3G|GE FA|
GG F>G|E4|zG FG|[M:3/4]EDC2zc|[M:2/4]Bc BF|[M:3/4]G2GB2=A|
G3G EF|G4 FG|[M:2/4]E2EE|(3EEE DC|B,2C2|C4||
